static/img/kroki/e606ec47cf31117b2b841608fd656b53.svg

<?xml version="1.0" encoding="us-ascii" standalone="no"?><svg xmlns="http://www.w3.org/2000/svg" xmlns:xlink="http://www.w3.org/1999/xlink" contentStyleType="text/css" height="252px" preserveAspectRatio="none" style="width:669px;height:252px;" version="1.1" viewBox="0 0 669 252" width="669px" zoomAndPan="magnify"><defs/><g><!--class azure_machine_learning_private_endpoint_connection--><g id="elem_azure_machine_learning_private_endpoint_connection"><rect codeLine="23" fill="#3D176E" height="39.7891" id="azure_machine_learning_private_endpoint_connection" rx="2.5" ry="2.5" style="stroke:#000D19;stroke-width:0.5;" width="498" x="74" y="106.79"/><ellipse cx="89" cy="126.6845" fill="#ADD1B2" rx="11" ry="11" style="stroke:#181818;stroke-width:1.0;"/><path d="M91.9688,132.3252 Q91.3906,132.622 90.75,132.7627 Q90.1094,132.9189 89.4063,132.9189 Q86.9063,132.9189 85.5781,131.2783 Q84.2656,129.622 84.2656,126.497 Q84.2656,123.372 85.5781,121.7158 Q86.9063,120.0595 89.4063,120.0595 Q90.1094,120.0595 90.75,120.2158 Q91.4063,120.372 91.9688,120.6689 L91.9688,123.3877 Q91.3438,122.8095 90.75,122.5439 Q90.1563,122.2627 89.5313,122.2627 Q88.1875,122.2627 87.5,123.3408 Q86.8125,124.4033 86.8125,126.497 Q86.8125,128.5908 87.5,129.6689 Q88.1875,130.7314 89.5313,130.7314 Q90.1563,130.7314 90.75,130.4658 Q91.3438,130.1845 91.9688,129.6064 L91.9688,132.3252 Z " fill="#000000"/><text fill="#D9B8FF" font-family="Helvetica" font-size="17" lengthAdjust="spacing" textLength="456" x="108" y="132.5698">azure_machine_learning_private_endpoint_connection</text></g><!--class azure_machine_learning_workspace--><g id="elem_azure_machine_learning_workspace"><rect codeLine="26" fill="#3D176E" height="39.7891" id="azure_machine_learning_workspace" rx="2.5" ry="2.5" style="stroke:#000D19;stroke-width:0.5;" width="344" x="151" y="7"/><ellipse cx="166" cy="26.8945" fill="#ADD1B2" rx="11" ry="11" style="stroke:#181818;stroke-width:1.0;"/><path d="M168.9688,32.5352 Q168.3906,32.832 167.75,32.9727 Q167.1094,33.1289 166.4063,33.1289 Q163.9063,33.1289 162.5781,31.4883 Q161.2656,29.832 161.2656,26.707 Q161.2656,23.582 162.5781,21.9258 Q163.9063,20.2695 166.4063,20.2695 Q167.1094,20.2695 167.75,20.4258 Q168.4063,20.582 168.9688,20.8789 L168.9688,23.5977 Q168.3438,23.0195 167.75,22.7539 Q167.1563,22.4727 166.5313,22.4727 Q165.1875,22.4727 164.5,23.5508 Q163.8125,24.6133 163.8125,26.707 Q163.8125,28.8008 164.5,29.8789 Q165.1875,30.9414 166.5313,30.9414 Q167.1563,30.9414 167.75,30.6758 Q168.3438,30.3945 168.9688,29.8164 L168.9688,32.5352 Z " fill="#000000"/><text fill="#D9B8FF" font-family="Helvetica" font-size="17" lengthAdjust="spacing" textLength="302" x="185" y="32.7798">azure_machine_learning_workspace</text></g><!--class microsoft_graph_service_principal--><g id="elem_microsoft_graph_service_principal"><rect codeLine="29" fill="#3D176E" height="39.7891" id="microsoft_graph_service_principal" rx="2.5" ry="2.5" style="stroke:#000D19;stroke-width:0.5;" width="324" x="7" y="206.58"/><ellipse cx="22" cy="226.4745" fill="#ADD1B2" rx="11" ry="11" style="stroke:#181818;stroke-width:1.0;"/><path d="M24.9688,232.1152 Q24.3906,232.412 23.75,232.5527 Q23.1094,232.7089 22.4063,232.7089 Q19.9063,232.7089 18.5781,231.0683 Q17.2656,229.412 17.2656,226.287 Q17.2656,223.162 18.5781,221.5058 Q19.9063,219.8495 22.4063,219.8495 Q23.1094,219.8495 23.75,220.0058 Q24.4063,220.162 24.9688,220.4589 L24.9688,223.1777 Q24.3438,222.5995 23.75,222.3339 Q23.1563,222.0527 22.5313,222.0527 Q21.1875,222.0527 20.5,223.1308 Q19.8125,224.1933 19.8125,226.287 Q19.8125,228.3808 20.5,229.4589 Q21.1875,230.5214 22.5313,230.5214 Q23.1563,230.5214 23.75,230.2558 Q24.3438,229.9745 24.9688,229.3964 L24.9688,232.1152 Z " fill="#000000"/><text fill="#D9B8FF" font-family="Helvetica" font-size="17" lengthAdjust="spacing" textLength="282" x="41" y="232.3598">microsoft_graph_service_principal</text></g><!--class microsoft_graph_user--><g id="elem_microsoft_graph_user"><rect codeLine="32" fill="#3D176E" height="39.7891" id="microsoft_graph_user" rx="2.5" ry="2.5" style="stroke:#000D19;stroke-width:0.5;" width="222" x="440" y="206.58"/><ellipse cx="455" cy="226.4745" fill="#ADD1B2" rx="11" ry="11" style="stroke:#181818;stroke-width:1.0;"/><path d="M457.9688,232.1152 Q457.3906,232.412 456.75,232.5527 Q456.1094,232.7089 455.4063,232.7089 Q452.9063,232.7089 451.5781,231.0683 Q450.2656,229.412 450.2656,226.287 Q450.2656,223.162 451.5781,221.5058 Q452.9063,219.8495 455.4063,219.8495 Q456.1094,219.8495 456.75,220.0058 Q457.4063,220.162 457.9688,220.4589 L457.9688,223.1777 Q457.3438,222.5995 456.75,222.3339 Q456.1563,222.0527 455.5313,222.0527 Q454.1875,222.0527 453.5,223.1308 Q452.8125,224.1933 452.8125,226.287 Q452.8125,228.3808 453.5,229.4589 Q454.1875,230.5214 455.5313,230.5214 Q456.1563,230.5214 456.75,230.2558 Q457.3438,229.9745 457.9688,229.3964 L457.9688,232.1152 Z " fill="#000000"/><text fill="#D9B8FF" font-family="Helvetica" font-size="17" lengthAdjust="spacing" textLength="180" x="474" y="232.3598">microsoft_graph_user</text></g><!--link azure_machine_learning_private_endpoint_connection to microsoft_graph_service_principal--><g id="link_azure_machine_learning_private_endpoint_connection_microsoft_graph_service_principal"><path codeLine="35" d="M292.57,147.01 C265.58,164.15 231.4044,185.8426 204.4244,202.9826 " fill="none" id="azure_machine_learning_private_endpoint_connection-to-microsoft_graph_service_principal" style="stroke:#1A83AF;stroke-width:2.0;"/><polygon fill="#1A83AF" points="199.36,206.2,209.1016,204.7502,203.5804,203.5189,204.8118,197.9977,199.36,206.2" style="stroke:#1A83AF;stroke-width:2.0;"/></g><!--link azure_machine_learning_private_endpoint_connection to microsoft_graph_user--><g id="link_azure_machine_learning_private_endpoint_connection_microsoft_graph_user"><path codeLine="36" d="M368.05,147.01 C408.02,164.15 460.5861,186.6943 500.5361,203.8343 " fill="none" id="azure_machine_learning_private_endpoint_connection-to-microsoft_graph_user" style="stroke:#1A83AF;stroke-width:2.0;"/><polygon fill="#1A83AF" points="506.05,206.2,499.3562,198.9755,501.455,204.2286,496.202,206.3274,506.05,206.2" style="stroke:#1A83AF;stroke-width:2.0;"/></g><!--link azure_machine_learning_workspace to azure_machine_learning_private_endpoint_connection--><g id="link_azure_machine_learning_workspace_azure_machine_learning_private_endpoint_connection"><path codeLine="37" d="M323,47.22 C323,64.36 323,83.27 323,100.41 " fill="none" id="azure_machine_learning_workspace-to-azure_machine_learning_private_endpoint_connection" style="stroke:#1A83AF;stroke-width:2.0;"/><polygon fill="#1A83AF" points="323,106.41,327,97.41,323,101.41,319,97.41,323,106.41" style="stroke:#1A83AF;stroke-width:2.0;"/></g><!--link azure_machine_learning_workspace to microsoft_graph_service_principal--><g id="link_azure_machine_learning_workspace_microsoft_graph_service_principal"><path codeLine="38" d="M210.28,47.28 C146.29,60.83 75.2,81.09 56,106.79 C27.56,144.85 78.9944,180.9771 121.8944,203.4371 " fill="none" id="azure_machine_learning_workspace-to-microsoft_graph_service_principal" style="stroke:#1A83AF;stroke-width:2.0;"/><polygon fill="#1A83AF" points="127.21,206.22,121.0919,198.5019,122.7804,203.9009,117.3814,205.5893,127.21,206.22" style="stroke:#1A83AF;stroke-width:2.0;"/></g><!--link azure_machine_learning_workspace to microsoft_graph_user--><g id="link_azure_machine_learning_workspace_microsoft_graph_user"><path codeLine="39" d="M435.72,47.28 C499.71,60.83 570.8,81.09 590,106.79 C612.72,137.2 589.7911,176.7211 570.7111,201.7111 " fill="none" id="azure_machine_learning_workspace-to-microsoft_graph_user" style="stroke:#1A83AF;stroke-width:2.0;"/><polygon fill="#1A83AF" points="567.07,206.48,575.7109,201.754,570.1042,202.5059,569.3524,196.8992,567.07,206.48" style="stroke:#1A83AF;stroke-width:2.0;"/></g><!--SRC=[hPB1Ji9048RlVOfDE9DGYG8Naqf2z4ACU3Ec6NPdwQRjRZExXO3ntQMWPccb5UDr_w_pVpDfeWGop0ktPJdcIoGRs5Jf0WXo5X6PpTHaXbXFIf33KJsS6UqwWJdaoEunMwDJ7Eh4Sw9ugj5QTkL5Ty3J5PbIY-DuHw3jFaBjF6gQWRMHSwIMfKDFHaoMOodhP7reRoZ2qGqsC4C2wHCP30OYdDIHpghMlR-9XTeX2_sZpOt3XcQZua2rMbQ49zbOz2i_w_W8GYYzOjVUszFHYJJIoViY0M4s5IqXitwDTKXetBR0QMChd8o57Fq8Fvo30rwTZi6k98npu8dI66S8fFVjSK5g3GvZrA8mIhkO6wsHEsKqUmk2z_QlDuRI_I_6qMTpnSbO8rsy8YYIs2Aj5SUgIdDLGDO6btlwcFz1kF_I2wFnC9gzzc-xDVwzeN8FEYzrCk9oXGiB_do5NyuxxFm1]--></g></svg>

<svg xmlns="http://www.w3.org/2000/svg" width="669" height="252" viewBox="0 0 669 252"><rect width="498" height="39.789" x="74" y="106.79" fill="#3D176E" rx="2.5" ry="2.5" style="stroke:#000d19;stroke-width:.5"/><circle cx="89" cy="126.684" r="11" fill="#ADD1B2" style="stroke:#181818;stroke-width:1"/><path d="M91.969 132.325q-.578.297-1.219.438-.64.156-1.344.156-2.5 0-3.828-1.64-1.312-1.657-1.312-4.782t1.312-4.781q1.328-1.656 3.828-1.656.703 0 1.344.156.656.156 1.219.453v2.719q-.625-.579-1.219-.844-.594-.281-1.219-.281-1.344 0-2.031 1.078-.687 1.062-.687 3.156t.687 3.172q.688 1.062 2.031 1.062.625 0 1.219-.265.594-.281 1.219-.86z"/><text x="108" y="132.57" fill="#D9B8FF" font-family="Helvetica" font-size="17" textLength="456">azure_machine_learning_private_endpoint_connection</text><rect width="344" height="39.789" x="151" y="7" fill="#3D176E" rx="2.5" ry="2.5" style="stroke:#000d19;stroke-width:.5"/><circle cx="166" cy="26.895" r="11" fill="#ADD1B2" style="stroke:#181818;stroke-width:1"/><path d="M168.969 32.535q-.578.297-1.219.438-.64.156-1.344.156-2.5 0-3.828-1.64-1.312-1.657-1.312-4.782t1.312-4.781q1.328-1.656 3.828-1.656.703 0 1.344.156.656.156 1.219.453v2.719q-.625-.578-1.219-.844-.594-.281-1.219-.281-1.344 0-2.031 1.078-.687 1.062-.687 3.156t.687 3.172q.688 1.062 2.031 1.062.625 0 1.219-.265.594-.281 1.219-.86z"/><text x="185" y="32.78" fill="#D9B8FF" font-family="Helvetica" font-size="17" textLength="302">azure_machine_learning_workspace</text><rect width="324" height="39.789" x="7" y="206.58" fill="#3D176E" rx="2.5" ry="2.5" style="stroke:#000d19;stroke-width:.5"/><circle cx="22" cy="226.475" r="11" fill="#ADD1B2" style="stroke:#181818;stroke-width:1"/><path d="M24.969 232.115q-.578.297-1.219.438-.64.156-1.344.156-2.5 0-3.828-1.64-1.312-1.657-1.312-4.782t1.312-4.781q1.328-1.656 3.828-1.656.703 0 1.344.156.656.156 1.219.453v2.719q-.625-.578-1.219-.844-.594-.281-1.219-.281-1.343 0-2.031 1.078-.687 1.062-.687 3.156t.687 3.172q.688 1.062 2.031 1.062.625 0 1.219-.265.594-.281 1.219-.86z"/><text x="41" y="232.36" fill="#D9B8FF" font-family="Helvetica" font-size="17" textLength="282">microsoft_graph_service_principal</text><rect width="222" height="39.789" x="440" y="206.58" fill="#3D176E" rx="2.5" ry="2.5" style="stroke:#000d19;stroke-width:.5"/><circle cx="455" cy="226.475" r="11" fill="#ADD1B2" style="stroke:#181818;stroke-width:1"/><path d="M457.969 232.115q-.578.297-1.219.438-.64.156-1.344.156-2.5 0-3.828-1.64-1.312-1.657-1.312-4.782t1.312-4.781q1.328-1.656 3.828-1.656.703 0 1.344.156.656.156 1.219.453v2.719q-.625-.578-1.219-.844-.594-.281-1.219-.281-1.344 0-2.031 1.078-.687 1.062-.687 3.156t.687 3.172q.688 1.062 2.031 1.062.625 0 1.219-.265.594-.281 1.219-.86z"/><text x="474" y="232.36" fill="#D9B8FF" font-family="Helvetica" font-size="17" textLength="180">microsoft_graph_user</text><path fill="none" d="M292.57 147.01c-26.99 17.14-61.166 38.833-88.146 55.973" style="stroke:#1a83af;stroke-width:2"/><path fill="#1A83AF" d="m199.36 206.2 9.742-1.45-5.522-1.231 1.232-5.521z" style="stroke:#1a83af;stroke-width:2"/><path fill="none" d="M368.05 147.01c39.97 17.14 92.536 39.684 132.486 56.824" style="stroke:#1a83af;stroke-width:2"/><path fill="#1A83AF" d="m506.05 206.2-6.694-7.224 2.099 5.253-5.253 2.098z" style="stroke:#1a83af;stroke-width:2"/><path fill="none" d="M323 47.22v53.19" style="stroke:#1a83af;stroke-width:2"/><path fill="#1A83AF" d="m323 106.41 4-9-4 4-4-4z" style="stroke:#1a83af;stroke-width:2"/><path fill="none" d="M210.28 47.28C146.29 60.83 75.2 81.09 56 106.79c-28.44 38.06 22.994 74.187 65.894 96.647" style="stroke:#1a83af;stroke-width:2"/><path fill="#1A83AF" d="m127.21 206.22-6.118-7.718 1.688 5.399-5.399 1.688z" style="stroke:#1a83af;stroke-width:2"/><path fill="none" d="M435.72 47.28C499.71 60.83 570.8 81.09 590 106.79c22.72 30.41-.209 69.931-19.289 94.921" style="stroke:#1a83af;stroke-width:2"/><path fill="#1A83AF" d="m567.07 206.48 8.64-4.726-5.606.752-.752-5.607z" style="stroke:#1a83af;stroke-width:2"/></svg>
